packages/merlin-www-assets/imports/glamour/icons/gallery-zoom-close.svg

<svg viewBox="0 0 20 20" xmlns="http://www.w3.org/2000/svg"><path d="m10 20a10 10 0 1 1 10-10 10 10 0 0 1 -10 10zm0-18a8 8 0 1 0 8 8 8 8 0 0 0 -8-8zm4.22 10.8-2.81-2.8 2.8-2.8-1.41-1.42-2.8 2.81-2.8-2.81-1.42 1.42 2.81 2.8-2.8 2.8 1.41 1.42 2.8-2.8 2.8 2.8z"/></svg>

<svg data-name="Layer 1" xmlns="http://www.w3.org/2000/svg" viewBox="0 0 20 20"><path class="cls-1" d="M10,20A10,10,0,1,1,20,10,10,10,0,0,1,10,20ZM10,2a8,8,0,1,0,8,8A8,8,0,0,0,10,2ZM14.22,12.8,11.41,10l2.8-2.8L12.8,5.78,10,8.59,7.2,5.78,5.78,7.2,8.59,10l-2.8,2.8L7.2,14.22l2.8-2.8,2.8,2.8Z"/></svg>
